build/img/icons/scope.svg

<svg width="105" height="121" viewBox="0 0 105 121" fill="none" xmlns="http://www.w3.org/2000/svg">
<path d="M59.4767 5.83485L78.435 38.6765C80.045 41.459 79.0883 45.029 76.3 46.639L68.7167 51.014L74.5558 61.1173L64.4525 66.9507L58.6192 56.8415L51.0417 61.2223C48.2533 62.8323 44.6833 61.8757 43.0733 59.0873L32.3517 40.5257C20.3817 44.154 11.6667 55.284 11.6667 68.4382C11.6667 72.084 12.3375 75.5782 13.5567 78.7982C18.0833 75.9282 23.4267 74.2715 29.1667 74.2715C38.99 74.2715 47.6817 79.1307 52.9667 86.574L97.8133 60.6798L103.647 70.7832L57.6917 97.319C58.1117 99.2907 58.3333 101.344 58.3333 103.438C58.3333 105.439 58.135 107.387 57.75 109.271H105V120.938L5.83333 120.944C2.17 116.067 0 110.007 0 103.438C0 97.564 1.73833 92.0923 4.725 87.5132C1.70917 81.8257 0 75.3332 0 68.4382C0 50.9673 10.9725 36.0573 26.4075 30.2298L24.115 26.2515C20.895 20.669 22.8025 13.5348 28.385 10.3148L43.54 1.56485C49.1225 -1.65515 56.2567 0.252349 59.4767 5.83485ZM29.1667 85.9382C19.5008 85.9382 11.6667 93.7723 11.6667 103.438C11.6667 105.48 12.0167 107.446 12.6583 109.271H45.675C46.3167 107.446 46.6667 105.48 46.6667 103.438C46.6667 93.7723 38.8325 85.9382 29.1667 85.9382ZM49.3733 11.6682L34.2183 20.4182L50.26 48.2023L65.415 39.4523L49.3733 11.6682Z" fill="#C4C4C4"/>
</svg>

<svg width="105" height="121" fill="none" xmlns="http://www.w3.org/2000/svg">
    <path d="m59.477 5.835 18.958 32.841A5.83 5.83 0 0 1 76.3 46.64l-7.583 4.375 5.839 10.103-10.103 5.834-5.834-10.11-7.577 4.381a5.836 5.836 0 0 1-7.969-2.135L32.352 40.526c-11.97 3.628-20.685 14.758-20.685 27.912 0 3.646.67 7.14 1.89 10.36a29.029 29.029 0 0 1 15.61-4.526c9.823 0 18.515 4.859 23.8 12.302L97.813 60.68l5.834 10.103L57.692 97.32a29.39 29.39 0 0 1 .641 6.119 29.09 29.09 0 0 1-.583 5.833H105v11.667l-99.167.006A29.044 29.044 0 0 1 0 103.438a29.058 29.058 0 0 1 4.725-15.925A40.598 40.598 0 0 1 0 68.438c0-17.47 10.973-32.38 26.407-38.208l-2.292-3.979c-3.22-5.582-1.313-12.716 4.27-15.936l15.155-8.75c5.583-3.22 12.717-1.313 15.937 4.27zm-30.31 80.103c-9.666 0-17.5 7.834-17.5 17.5 0 2.042.35 4.008.991 5.833h33.017c.642-1.825.992-3.791.992-5.833 0-9.666-7.834-17.5-17.5-17.5zm20.206-74.27-15.155 8.75L50.26 48.202l15.155-8.75-16.042-27.784z" fill="#C4C4C4"/>
</svg>
